;FLAVOR:Marlin
;TIME:3629
;Filament used: 2.01336m
;Layer height: 0.1
;MINX:70.846
;MINY:85.899
;MINZ:0.3
;MAXX:149.154
;MAXY:134.101
;MAXZ:7
;Generated with Cura_SteamEngine 5.0.0
M140 S70
M105
M190 S70
M104 S215
M105
M109 S215
M82 ;absolute extrusion mode

G1 Z15 F300 ;Move up slightly
M107 ;Off fans
G90 ;Switch to absolute positioning
M82 ;Extruder absolute mode
G92 E0 ;Set position of extruder to 0
G0 X10 Y20 F1500 ;Move to X10 Y20 at 1500mms
G1 Z0.8 ;Move Z to 0.8
G1 F300 X180 E40 ;Extrude a line of filament
G1 F1200 Z2 ;Raise Z
G92 E0 ;Set extruder position to zero
G0 X10 Y1O F1500; Move back to almost home
G28; Auto Home
G92 E0
G92 E0
G1 F2100 E-0.8
;LAYER_COUNT:68
;LAYER:0
M107
G0 X74.358 Y88.544 Z0.3
G0 X70.846 Y96.207
;TYPE:SKIRT
G1 F2100 E0
G1 F1500 X70.887 Y95.429 E0.04859
G1 X70.949 Y94.896 E0.08205
G1 X71.087 Y94.134 E0.13034
G1 X71.217 Y93.609 E0.16407
G1 X71.465 Y92.825 E0.21535
G1 X71.658 Y92.326 E0.24872
G1 X71.971 Y91.648 E0.29529
G1 X72.22 Y91.186 E0.32802
G1 X72.645 Y90.502 E0.37824
G1 X72.956 Y90.066 E0.41164
G1 X73.44 Y89.47 E0.45952
G1 X73.797 Y89.082 E0.4924
G1 X74.358 Y88.544 E0.54087
G1 X74.773 Y88.194 E0.57473
G1 X75.414 Y87.72 E0.62444
G1 X75.87 Y87.426 E0.65828
G1 X76.594 Y87.022 E0.70998
G1 X77.081 Y86.789 E0.74365
G1 X77.828 Y86.489 E0.79385
G1 X78.536 Y86.264 E0.84018
G1 X79.258 Y86.093 E0.88645
G1 X79.858 Y85.991 E0.92441
G1 X80.457 Y85.927 E0.96197
G1 X81.622 Y85.899 E1.03465
G1 X82.162 Y85.929 E1.06838
G1 X82.953 Y86.023 E1.11805
G1 X83.462 Y86.115 E1.15031
G1 X84.638 Y86.404 E1.22583
G1 X86.43 Y86.881 E1.34147
G1 X89.086 Y87.507 E1.51165
G1 X91.765 Y88.058 E1.68222
G1 X94.397 Y88.523 E1.8489
G1 X97.077 Y88.919 E2.01784
G1 X99.75 Y89.237 E2.18571
G1 X102.465 Y89.482 E2.35572
G1 X105.159 Y89.649 E2.52404
G1 X107.888 Y89.74 E2.69433
G1 X110.239 Y89.762 E2.84095
G1 X110.857 Y89.782 E2.87951
G1 X111.868 Y89.847 E2.94269
G1 X112.461 Y89.915 E2.97991
G1 X113.542 Y90.073 E3.04804
G1 X114.095 Y90.183 E3.0832
G1 X115.126 Y90.419 E3.14916
G1 X115.667 Y90.573 E3.18424
G1 X116.645 Y90.882 E3.2482
G1 X117.25 Y91.107 E3.28846
G1 X118.171 Y91.483 E3.3505
G1 X118.69 Y91.724 E3.38618
G1 X119.66 Y92.214 E3.45395
G1 X120.137 Y92.485 E3.48817
G1 X121.05 Y93.044 E3.55493
G1 X121.521 Y93.364 E3.59044
G1 X122.364 Y93.976 E3.6554
G1 X122.826 Y94.347 E3.69236
G1 X123.568 Y94.983 E3.7533
G1 X124.067 Y95.454 E3.79609
G1 X124.799 Y96.194 E3.861
G1 X125.68 Y97.203 E3.94454
G1 X127.433 Y99.303 E4.11513
G1 X129.233 Y101.342 E4.28475
G1 X131.084 Y103.323 E4.45383
G1 X132.974 Y105.231 E4.62131
G1 X134.935 Y107.105 E4.79047
G1 X136.972 Y108.942 E4.96153
G1 X139.024 Y110.691 E5.12967
G1 X141.107 Y112.367 E5.2964
G1 X143.297 Y114.028 E5.46781
G1 X144.794 Y115.111 E5.58304
G1 X145.195 Y115.417 E5.6145
G1 X146.077 Y116.209 E5.68842
G1 X146.429 Y116.577 E5.72018
G1 X146.917 Y117.153 E5.76726
G1 X147.244 Y117.594 E5.8015
G1 X147.691 Y118.286 E5.85287
G1 X147.945 Y118.738 E5.88521
G1 X148.339 Y119.563 E5.94222
G1 X148.596 Y120.229 E5.98674
G1 X148.781 Y120.835 E6.02625
G1 X149.022 Y121.96 E6.098
G1 X149.093 Y122.485 E6.13104
G1 X149.149 Y123.264 E6.17975
G1 X149.154 Y123.793 E6.21274
G1 X149.113 Y124.571 E6.26132
G1 X149.051 Y125.106 E6.29491
G1 X148.912 Y125.872 E6.34346
G1 X148.784 Y126.39 E6.37674
G1 X148.539 Y127.168 E6.4276
G1 X148.341 Y127.677 E6.46166
G1 X148.026 Y128.357 E6.5084
G1 X147.78 Y128.814 E6.54077
G1 X147.355 Y129.498 E6.59099
G1 X147.044 Y129.934 E6.62438
G1 X146.56 Y130.53 E6.67226
G1 X146.203 Y130.918 E6.70515
G1 X145.642 Y131.456 E6.75362
G1 X145.227 Y131.806 E6.78747
G1 X144.586 Y132.28 E6.83719
G1 X144.13 Y132.574 E6.87103
G1 X143.406 Y132.978 E6.92273
G1 X142.919 Y133.211 E6.9564
G1 X142.172 Y133.511 E7.0066
G1 X141.464 Y133.736 E7.05293
G1 X140.742 Y133.907 E7.0992
G1 X140.142 Y134.009 E7.13716
G1 X139.543 Y134.073 E7.17472
G1 X138.378 Y134.101 E7.2474
G1 X137.838 Y134.071 E7.28112
G1 X137.047 Y133.977 E7.3308
G1 X136.537 Y133.885 E7.36312
G1 X135.36 Y133.595 E7.43872
G1 X133.579 Y133.121 E7.55365
G1 X130.914 Y132.493 E7.7244
G1 X128.235 Y131.942 E7.89497
G1 X125.603 Y131.477 E8.06165
G1 X122.923 Y131.081 E8.23059
G1 X120.25 Y130.763 E8.39846
G1 X117.535 Y130.518 E8.56847
G1 X114.841 Y130.351 E8.73679
G1 X112.112 Y130.26 E8.90708
G1 X109.76 Y130.238 E9.05376
G1 X109.147 Y130.218 E9.09201
G1 X108.132 Y130.153 E9.15544
G1 X107.539 Y130.085 E9.19266
G1 X106.458 Y129.927 E9.26079
G1 X105.905 Y129.817 E9.29595
G1 X104.874 Y129.581 E9.36191
G1 X104.333 Y129.427 E9.39699
G1 X103.355 Y129.118 E9.46095
G1 X102.75 Y128.893 E9.50121
G1 X101.829 Y128.517 E9.56325
G1 X101.31 Y128.276 E9.59893
G1 X100.33 Y127.78 E9.66743
G1 X99.804 Y127.48 E9.70519
G1 X98.95 Y126.956 E9.76768
G1 X98.477 Y126.635 E9.80332
G1 X97.636 Y126.024 E9.86815
G1 X97.152 Y125.636 E9.90684
G1 X96.429 Y125.014 E9.96631
G1 X95.926 Y124.539 E10.00946
G1 X95.201 Y123.807 E10.07371
G1 X94.857 Y123.424 E10.10581
G1 X94.274 Y122.743 E10.16172
G1 X92.563 Y120.691 E10.32834
G1 X90.77 Y118.662 E10.4972
G1 X88.931 Y116.695 E10.66513
G1 X87.017 Y114.76 E10.83486
G1 X85.064 Y112.895 E11.00327
G1 X83.027 Y111.057 E11.17437
G1 X81.002 Y109.331 E11.3403
G1 X78.859 Y107.606 E11.51186
G1 X76.714 Y105.979 E11.67976
G1 X75.2 Y104.885 E11.79624
G1 X74.799 Y104.578 E11.82774
G1 X73.925 Y103.793 E11.901
G1 X73.57 Y103.422 E11.93302
G1 X73.082 Y102.846 E11.9801
G1 X72.754 Y102.403 E12.01448
G1 X72.307 Y101.71 E12.06591
G1 X72.054 Y101.26 E12.0981
G1 X71.661 Y100.437 E12.15498
G1 X71.402 Y99.764 E12.19995
G1 X71.22 Y99.168 E12.23881
G1 X70.977 Y98.034 E12.31113
G1 X70.907 Y97.513 E12.34392
G1 X70.851 Y96.737 E12.39244
G1 X70.846 Y96.207 E12.42549
G0 F2100 X71.35 Y96.701
G1 F1500 X71.386 Y95.456 E12.50316
G1 X71.579 Y94.223 E12.58099
G1 X71.942 Y92.976 E12.66199
G1 X72.425 Y91.857 E12.738
G1 X73.07 Y90.766 E12.81703
G1 X73.828 Y89.785 E12.89435
G1 X74.704 Y88.904 E12.97183
G1 X75.711 Y88.122 E13.05134
G1 X76.838 Y87.458 E13.13291
G1 X78.014 Y86.953 E13.21273
G1 X78.671 Y86.746 E13.25568
G1 X79.371 Y86.58 E13.30055
G1 X79.929 Y86.486 E13.33584
G1 X80.507 Y86.424 E13.37209
G1 X81.626 Y86.399 E13.44189
G1 X82.894 Y86.519 E13.52132
G1 X83.343 Y86.601 E13.54978
G1 X84.509 Y86.887 E13.62465
G1 X86.324 Y87.37 E13.74178
G1 X88.975 Y87.995 E13.91164
G1 X91.648 Y88.544 E14.08181
G1 X94.308 Y89.014 E14.25027
G1 X97.016 Y89.415 E14.42099
G1 X99.717 Y89.736 E14.59062
G1 X102.425 Y89.98 E14.76018
G1 X105.146 Y90.149 E14.93019
G1 X107.867 Y90.239 E15.09998
G1 X110.225 Y90.262 E15.24703
G1 X110.827 Y90.281 E15.2846
G1 X111.814 Y90.344 E15.34627
G1 X112.391 Y90.41 E15.38249
G1 X113.446 Y90.564 E15.44898
G1 X113.986 Y90.671 E15.48331
G1 X114.991 Y90.901 E15.54761
G1 X115.519 Y91.05 E15.58182
G1 X116.473 Y91.352 E15.64422
G1 X117.063 Y91.57 E15.68345
G1 X117.962 Y91.937 E15.744
G1 X118.466 Y92.171 E15.77866
G1 X119.415 Y92.65 E15.84495
G1 X119.878 Y92.912 E15.87813
G1 X120.771 Y93.459 E15.94344
G1 X121.23 Y93.77 E15.97801
G1 X122.052 Y94.367 E16.04137
G1 X122.503 Y94.729 E16.07743
G1 X123.226 Y95.347 E16.13675
G1 X123.714 Y95.807 E16.17857
G1 X124.428 Y96.529 E16.24189
G1 X125.3 Y97.528 E16.32459
G1 X127.046 Y99.621 E16.49457
G1 X128.846 Y101.66 E16.66419
G1 X130.734 Y103.68 E16.83662
G1 X132.627 Y105.591 E17.00436
G1 X134.59 Y107.466 E17.17365
G1 X136.63 Y109.306 E17.34498
G1 X138.704 Y111.074 E17.51493
G1 X140.808 Y112.767 E17.68335
G1 X143.008 Y114.436 E17.85556
G1 X144.491 Y115.509 E17.96971
G1 X144.892 Y115.815 E18.00117
G1 X145.737 Y116.575 E18.07204
G1 X146.535 Y117.476 E18.1471
G1 X147.271 Y118.557 E18.22866
G1 X147.801 Y119.587 E18.3009
G1 X148.051 Y120.184 E18.34126
G1 X148.301 Y120.976 E18.39305
G1 X148.532 Y122.057 E18.46199
G1 X148.65 Y123.3 E18.53986
G1 X148.614 Y124.544 E18.61747
G1 X148.42 Y125.783 E18.69568
G1 X148.062 Y127.017 E18.77581
G1 X147.573 Y128.147 E18.85259
G1 X146.93 Y129.234 E18.93135
G1 X146.172 Y130.215 E19.00866
G1 X145.296 Y131.096 E19.08614
G1 X144.289 Y131.878 E19.16565
G1 X143.162 Y132.542 E19.24723
G1 X141.986 Y133.047 E19.32704
G1 X141.329 Y133.254 E19.37
G1 X140.629 Y133.42 E19.41487
G1 X140.071 Y133.514 E19.45015
G1 X139.493 Y133.576 E19.48641
G1 X138.374 Y133.601 E19.55621
G1 X137.106 Y133.481 E19.63564
G1 X136.656 Y133.399 E19.66416
G1 X135.488 Y133.112 E19.73917
G1 X133.676 Y132.63 E19.8561
G1 X131.025 Y132.005 E20.02596
G1 X128.352 Y131.456 E20.19613
G1 X125.692 Y130.986 E20.36459
G1 X122.984 Y130.585 E20.53531
G1 X120.283 Y130.264 E20.70493
G1 X117.575 Y130.02 E20.8745
G1 X114.854 Y129.851 E21.04451
G1 X112.133 Y129.761 E21.21429
G1 X109.774 Y129.738 E21.36141
G1 X109.177 Y129.719 E21.39866
G1 X108.186 Y129.656 E21.46059
G1 X107.609 Y129.59 E21.49681
G1 X106.554 Y129.436 E21.5633
G1 X106.014 Y129.329 E21.59763
G1 X105.009 Y129.099 E21.66192
G1 X104.481 Y128.95 E21.69614
G1 X103.527 Y128.648 E21.75854
G1 X102.937 Y128.43 E21.79777
G1 X102.038 Y128.063 E21.85832
G1 X101.534 Y127.829 E21.89297
G1 X100.576 Y127.345 E21.95991
G1 X100.063 Y127.053 E21.99672
G1 X99.229 Y126.541 E22.05775
G1 X98.769 Y126.229 E22.09241
G1 X97.947 Y125.632 E22.15577
G1 X97.476 Y125.255 E22.19339
G1 X96.771 Y124.65 E22.25133
G1 X96.279 Y124.186 E22.2935
G1 X95.572 Y123.472 E22.35617
G1 X95.237 Y123.098 E22.38748
G1 X94.658 Y122.423 E22.44294
G1 X92.934 Y120.357 E22.61074
G1 X91.156 Y118.344 E22.77824
G1 X89.264 Y116.319 E22.95107
G1 X87.382 Y114.417 E23.11793
G1 X85.409 Y112.533 E23.28806
G1 X83.369 Y110.693 E23.45938
G1 X81.285 Y108.916 E23.63018
G1 X79.196 Y107.235 E23.7974
G1 X77.022 Y105.585 E23.9676
G1 X75.504 Y104.488 E24.0844
G1 X75.103 Y104.181 E24.11589
G1 X74.265 Y103.426 E24.18624
G1 X73.464 Y102.523 E24.26151
G1 X72.727 Y101.439 E24.34326
G1 X72.199 Y100.413 E24.41522
G1 X71.947 Y99.81 E24.45597
G1 X71.7 Y99.026 E24.50724
G1 X71.468 Y97.937 E24.57667
G1 X71.35 Y96.701 E24.6541
G0 F2100 X71.848 Y96.665
G1 F1500 X71.886 Y95.482 E24.72792
G1 X72.071 Y94.312 E24.80179
G1 X72.418 Y93.127 E24.87879
G1 X72.879 Y92.067 E24.95088
G1 X73.494 Y91.03 E25.02606
G1 X74.216 Y90.1 E25.09949
G1 X75.05 Y89.265 E25.17309
G1 X76.009 Y88.524 E25.24866
G1 X77.081 Y87.895 E25.32618
G1 X78.201 Y87.417 E25.40212
G1 X78.807 Y87.227 E25.44172
G1 X79.484 Y87.067 E25.48511
G1 X80.001 Y86.98 E25.5178
G1 X80.556 Y86.922 E25.5526
G1 X81.631 Y86.899 E25.61966
G1 X82.835 Y87.016 E25.69509
G1 X83.224 Y87.086 E25.71974
G1 X84.381 Y87.37 E25.79404
G1 X86.219 Y87.859 E25.91265
G1 X88.872 Y88.484 E26.08263
G1 X91.565 Y89.038 E26.25409
G1 X94.218 Y89.507 E26.4221
G1 X96.954 Y89.912 E26.59458
G1 X99.649 Y90.232 E26.76383
G1 X102.385 Y90.479 E26.93515
G1 X105.133 Y90.649 E27.10685
G1 X107.846 Y90.739 E27.27613
G1 X110.211 Y90.761 E27.42363
G1 X110.797 Y90.78 E27.46019
G1 X111.759 Y90.841 E27.5203
G1 X112.321 Y90.905 E27.55558
G1 X113.35 Y91.054 E27.62042
G1 X113.877 Y91.158 E27.65392
G1 X114.856 Y91.382 E27.71655
G1 X115.37 Y91.528 E27.74987
G1 X116.3 Y91.821 E27.81068
G1 X116.876 Y92.034 E27.84898
G1 X117.754 Y92.392 E27.90811
G1 X118.243 Y92.618 E27.9417
G1 X119.17 Y93.086 E28.00646
G1 X119.619 Y93.34 E28.03863
G1 X120.491 Y93.873 E28.10237
G1 X120.938 Y94.176 E28.13605
G1 X121.74 Y94.757 E28.19781
G1 X122.18 Y95.11 E28.23298
G1 X122.884 Y95.712 E28.29075
G1 X123.36 Y96.161 E28.33156
G1 X124.057 Y96.864 E28.39329
G1 X124.921 Y97.854 E28.47524
G1 X126.692 Y99.976 E28.64761
G1 X128.493 Y102.016 E28.81731
G1 X130.325 Y103.976 E28.98462
G1 X132.298 Y105.969 E29.15951
G1 X134.264 Y107.846 E29.32902
G1 X136.304 Y109.686 E29.50035
G1 X138.382 Y111.458 E29.67066
G1 X140.509 Y113.169 E29.84089
G1 X142.664 Y114.804 E30.00959
G1 X144.188 Y115.906 E30.12687
G1 X144.589 Y116.212 E30.15833
G1 X145.397 Y116.942 E30.22624
G1 X146.154 Y117.799 E30.29755
G1 X146.851 Y118.829 E30.37511
G1 X147.351 Y119.805 E30.44349
G1 X147.579 Y120.349 E30.48028
G1 X147.821 Y121.118 E30.53055
G1 X148.041 Y122.155 E30.59666
G1 X148.152 Y123.336 E30.67064
G1 X148.114 Y124.518 E30.74439
G1 X147.928 Y125.693 E30.81858
G1 X147.585 Y126.867 E30.89485
G1 X147.119 Y127.937 E30.96763
G1 X146.506 Y128.97 E31.04254
G1 X145.784 Y129.9 E31.11597
G1 X144.95 Y130.735 E31.18957
G1 X143.991 Y131.476 E31.26514
G1 X142.919 Y132.105 E31.34266
G1 X141.799 Y132.583 E31.4186
G1 X141.193 Y132.773 E31.4582
G1 X140.516 Y132.933 E31.50159
G1 X139.999 Y133.02 E31.53428
G1 X139.444 Y133.078 E31.56908
G1 X138.369 Y133.101 E31.63614
G1 X137.165 Y132.984 E31.71157
G1 X136.775 Y132.913 E31.7363
G1 X135.617 Y132.629 E31.81065
G1 X133.79 Y132.143 E31.92855
G1 X131.128 Y131.516 E32.0991
G1 X128.435 Y130.962 E32.27056
G1 X125.782 Y130.493 E32.43858
G1 X123.046 Y130.088 E32.61106
G1 X120.351 Y129.768 E32.78031
G1 X117.615 Y129.521 E32.95163
G1 X114.867 Y129.351 E33.12333
G1 X112.154 Y129.261 E33.29261
G1 X109.789 Y129.239 E33.4401
G1 X109.206 Y129.22 E33.47648
G1 X108.241 Y129.159 E33.53678
G1 X107.679 Y129.095 E33.57206
G1 X106.65 Y128.946 E33.6369
G1 X106.123 Y128.842 E33.6704
G1 X105.144 Y128.618 E33.73303
G1 X104.63 Y128.472 E33.76635
G1 X103.7 Y128.179 E33.82716
G1 X103.124 Y127.966 E33.86545
G1 X102.246 Y127.608 E33.92459
G1 X101.757 Y127.382 E33.95818
G1 X100.823 Y126.91 E34.02344
G1 X100.323 Y126.625 E34.05933
G1 X99.509 Y126.127 E34.11884
G1 X99.061 Y125.823 E34.15261
G1 X98.258 Y125.241 E34.21445
G1 X97.8 Y124.874 E34.25106
G1 X97.113 Y124.285 E34.30749
G1 X96.633 Y123.832 E34.34865
G1 X95.943 Y123.137 E34.40972
G1 X95.07 Y122.136 E34.49255
G1 X93.323 Y120.042 E34.66262
G1 X91.491 Y117.968 E34.83519
G1 X89.649 Y115.998 E35.00339
G1 X87.73 Y114.057 E35.17361
G1 X85.735 Y112.152 E35.34563
G1 X83.712 Y110.328 E35.5155
G1 X81.627 Y108.55 E35.68638
G1 X79.474 Y106.817 E35.85874
G1 X77.31 Y105.176 E36.02811
G1 X75.808 Y104.091 E36.14366
G1 X75.407 Y103.784 E36.17516
G1 X74.604 Y103.059 E36.24262
G1 X73.845 Y102.2 E36.31411
G1 X73.147 Y101.168 E36.39181
G1 X72.649 Y100.195 E36.45997
G1 X72.419 Y99.646 E36.49709
G1 X72.179 Y98.884 E36.54691
G1 X71.958 Y97.84 E36.61346
G1 X71.848 Y96.665 E36.68706
G1 F2100 E35.88706
;MESH:Ledafoon v1.stl
G0 X74.422 Y96.528
G0 X75.495 Y96.47
G0 X77.459 Y96.151
G1 F2100 E36.68706
G0 X78.103 Y96.006
;TYPE:WALL-OUTER
G1 F1200 X78.03 Y95.691 E36.70722
G1 X78.047 Y95.231 E36.73593
G1 X78.169 Y94.862 E36.76017
G1 X78.405 Y94.515 E36.78634
G1 X78.68 Y94.274 E36.80914
G1 X79.026 Y94.101 E36.83327
G1 X79.446 Y94.023 E36.85991
G1 X79.802 Y94.045 E36.88215
G1 X80.252 Y94.206 E36.91195
G1 X85.13 Y96.52 E37.24865
G1 X85.465 Y96.745 E37.27382
G1 X85.726 Y97.04 E37.29838
G1 X85.898 Y97.384 E37.32237
G1 X85.977 Y97.766 E37.34669
G1 X85.954 Y98.159 E37.37124
G1 X85.831 Y98.528 E37.3955
G1 X85.613 Y98.859 E37.42022
G1 X85.321 Y99.116 E37.44448
G1 X84.975 Y99.289 E37.4686
G1 X84.592 Y99.368 E37.49299
G1 X84.198 Y99.345 E37.5176
G1 X83.839 Y99.229 E37.54113
G1 X78.871 Y96.87 E37.8841
G1 X78.536 Y96.645 E37.90927
G1 X78.274 Y96.35 E37.93387
G1 X78.103 Y96.006 E37.95783
G0 F2100 X78.058 Y95.811
G0 X77.415 Y95.956
G0 X77.799 Y96.731
G0 X94.405 Y108.503
G0 X94.122 Y109.098
G1 F1200 X94.231 Y109.199 E37.9671
G1 X94.265 Y109.325 E37.97524
G1 X94.262 Y110.592 E38.05425
G1 X94.361 Y111.856 E38.13332
G1 X94.56 Y113.098 E38.21176
G1 X94.862 Y114.345 E38.29177
G1 X95.262 Y115.556 E38.37131
G1 X95.757 Y116.719 E38.45013
G1 X96.343 Y117.842 E38.52913
G1 X97.021 Y118.918 E38.60844
G1 X97.781 Y119.935 E38.68762
G1 X98.622 Y120.888 E38.76688
G1 X99.537 Y121.771 E38.84618
G1 X100.517 Y122.575 E38.92523
G1 X101.561 Y123.297 E39.00439
G1 X102.661 Y123.934 E39.08366
G1 X103.805 Y124.479 E39.16269
G1 X104.993 Y124.932 E39.24198
G1 X106.008 Y125.226 E39.30788
G1 X106.517 Y125.349 E39.34053
G1 X107.456 Y125.543 E39.40033
G1 X108.718 Y125.697 E39.47961
G1 X109.987 Y125.749 E39.55882
G1 X110.879 Y125.715 E39.61449
G1 X112.313 Y125.571 E39.70436
G1 X112.843 Y125.481 E39.73789
G1 X113.761 Y125.292 E39.79634
G1 X114.98 Y124.942 E39.87543
G1 X116.065 Y124.532 E39.94777
G1 X116.934 Y124.128 E40.00753
G1 X117.406 Y123.893 E40.04041
G1 X118.414 Y123.312 E40.11297
G1 X119.459 Y122.59 E40.19218
G1 X120.485 Y121.755 E40.27467
G1 X120.677 Y121.723 E40.28681
G1 X121.157 Y121.945 E40.31979
G1 X136.095 Y129.042 E41.35116
G1 X136.78 Y129.319 E41.39724
